!!!COM: Bartok, Bela
!!!OTL: From the Island of Bali
!!!ONM: 109
!!!OPR: Mikrokosmos, Vol. IV
!! Boosey & Hawkes Ltd. (London) 1955, copyright 1940 pp.24-25
!! NOTE: the texture expands to 4 voices at bar 31, and increases
!!       to six voices at bar 41.
!! irregular meter signature
**kern	**kern
*M6/8	*M6/8
=1	=1
{8e-	2.r
8d	.
8A	.
8G#	.
8A	.
8d	.
=2	=2
[2.e-	{8Bn
.	8c
.	8f
.	8g-
.	8f
.	8c
=3	=3
8e-}]	[4.B
{8d	.
8A	.
[4.G#	8B}]
.	{8f
.	8c
=4	=4
8G#}]	4B
{8A	.
8d	4c
4e-	.
.	8B}
8d}	8r
=5	=5
2.r	{8gg-
.	8ff
.	8cc
.	8bn
.	8cc
.	8ff
=6	=6
{8G#	[2.gg-
8A	.
8d	.
8e-	.
8d	.
8A	.
=7	=7
[4.G#	8gg-}]
.	{8ff
.	8cc
8G#}]	[4.ff
{8d	.
8A	.
=8	=8
[4.G#	8ff}]
.	{8cc
.	8b}
8G#}]	{8gg-
{8A	[4cc
8d	.
=9	=9
4e-	8cc}]
.	{8b
8d}	8cc
{8G#	8gg-
8A	8ff
8e-	8b
=10	=10
8d	8cc
8G#	8gg-
[8A	8ff}
8A}]	{4b
{4e-	.
.	[8cc
=11	=11
4d	4cc]
[8A	[8ff
4.A}]	4.ff}]
=12	=12
*M4/4	*M4/4
2r	2r
8r	8r
{8B	{8bb
8c	8ccc
8f	8fff
=13	=13
4g-~}	4ggg-~}
4g-~	4ggg-~
{8g-	{8ggg-
8f	8fff
8c	8ccc
8g-}	8ggg-}
=14	=14
{8f	{8fff
8c	8ccc
4g-~}	4ggg-~}
8r	8r
{8B	{8bb
8c	8ccc
8f	8fff
=15	=15
4g-~	4ggg-~
4a--~}	4aaa--~}
{8g-	{8ggg-
8f	8fff
8c	8ccc
8g-}	8ggg-}
=16	=16
{8f	{8fff
8c	8ccc
4B~}	4bb~}
2r	8r
.	{8gg#
.	8aa
.	8dddn
=17	=17
8r	4eee-~}
{8Bn	.
8c	4eee-~
8f	.
4g-~}	{8eee-
.	8ddd
4g-~	8aa
.	8eee-}
=18	=18
{8g-	{8ddd
8f	8aa
8c	4eee-~}
8g}	.
{8f	8r
8c	{8ee-
4g-~}	8dd
.	8a
=19	=19
8r	4g#~}
{8B	.
8c	[{4g#*
8f	.
4g-~}	8g#]
.	8a
[{4g-*	8dd
.	8ee-}
=20	=20
8g-]	{8dd
8f	8a
8c	[4g#
8B}	.
{8c	8g#}]
8f	{8a
[4g-	8dd
.	8a
=21	=21
8g-}]	8g#}
{8Bn	{8dd
8c	8a
8f	8g#}
8g-}	{8dd
{8B	8a
8c	8g#}
8f	{8dd
=22	=22
8g-}	8a
{8B	8g#}
8c	{8dd
8f	8a}
4.g-}	{4g#
.	8dd}
8r	8r
=23	=23
2r	2r
8r	8r
{8AAn	{8An
8BB-	8B-
8D	8d
=24	=24
4E-~}	4e-~}
4E-~	4e-~
4E-~	4e-~
{8D	{8d
8BB-}	8B-}
=25	=25
{8E-	{8e-
8D}	8d}
4BB-~	4B-~
{8D	{8d
8E-	8e-
8D	8d
8BB-}	8B-}
=26	=26
{8E-	{8e-
8D	8d
8BB-~}	8B-~}
8AA~	8A~
8r	8r
{8AAA	{8A
8BBB-	8B-
8DD	8d
=27	=27
4EE-~}	4e-~}
4EE-~	4e-~
{8DD	{8D
8BBB-}	8B-}
[4EE-~	[4e-~
=28	=28
8EE-]	8e-]
{8BBB-	{8B-
8DD	8d
8EE-}	8e-}
8BBB-~	8B-~
{8DD	{8d
8EE-	8e-
8DD}	8d}
=29	=29
8r	8r
{8EE-	{8e-
8BBB-	8B-
8AAA}	8A}
8BBB-~	8B-~
[4.DD	[4.d
=30	=30
1DD_	1d_
=31	=31
*^	*^
*M6/8	*M6/8	*M6/8	*M6/8
2.DD_	2.d_	8r	2.r
.	.	{8A	.
.	.	8G#	.
.	.	8A	.
.	.	8d	.
.	.	8e-	.
=32	=32	=32	=32
2.DD_	2.d_	4.d	8r
.	.	.	{8cc
.	.	.	8b
.	.	[4.A	8cc
.	.	.	8ff
.	.	.	8gg-
=33	=33	=33	=33
2.DD_	2.d_	8A}]	8ff
.	.	{8A	[4cc
.	.	8G#	.
.	.	8A	4.cc_
.	.	8d	.
.	.	8e-	.
=34	=34	=34	=34
2.DD_	2.d_	4.d	8cc}]
.	.	.	{8g
.	.	.	8f#
.	.	[4.A	8g
.	.	.	8cc
.	.	.	8dd-
=35	=35	=35	=35
2.DD_	2.d_	8A}]	8cc
.	.	{8A	[4g
.	.	8G#	.
.	.	8A	4.g_
.	.	8d	.
.	.	8e-	.
=36	=36	=36	=36
2.DD_	2.d_	4.d	8g}]
.	.	.	{8c
.	.	.	8B
.	.	[4.A	8c
.	.	.	8f
.	.	.	8g-
=37	=37	=37	=37
2.DD_	2.d_	8A}]	8f
.	.	{8d	[4c
.	.	8e-	.
.	.	8d	8c}]
.	.	[4A	{8B
.	.	.	8c
=38	=38	=38	=38
2.DD]	2.d]	8A}]	4.f}
.	.	{8G#	.
.	.	8A	.
.	.	4.d}	[{4.g-
=39	=39	=39	=39
2.r	2.r	2.e-	4.g-]
.	.	.	4.f}
=40	=40	=40	=40
*	*	*	*^
2.r	4r	4r	4r	4r
.	8r	8r	8r	8r
.	{4.G#'~	{4.e-'~	{4.bn'~	{4.gg-'~
=41	=41	=41	=41	=41
*	*	*	*	*^
2.r	[2.A'~}	[2.d'~}	[2.cc'~}	[2.ff'~}	2.r
=42	=42	=42	=42	=42	=42
4FF#'	2.A_	2.d_	2.cc_	2.ff_	4aaa'
8r	.	.	.	.	8r
4r	.	.	.	.	4r
8r	.	.	.	.	8r
=43	=43	=43	=43	=43	=43
2.r	2.A]	2.d]	2.cc]	2.ff]	2.r
==	==	==	==	==	==
*-	*-	*-	*-	*-	*-
